X:1
T:[ID 2-55b]
T:[ID 2-55b]
T:Bezeichnung standardisiert: Tantz Tantz \"Ahnlich in dieser Quelle: ID 5-9;
T:Urheber unbekannt Datum in der hier transkribierten schriftlichen Quelle: 1792
C:Urheber unbekannt
C:Datum in der hier transkribierten schriftlichen Quelle: 1792
L:1/8
M:2/4
K:D
V:1 treble 
V:1
 A | d3 f | e3 g | fd ge | dAFD | d3 f | e3 g | fd ge | d3 :: d | f3 f | g3 e | e3 e | a3 A | %14
 d3 f | e3 g | fd ge | d3 :| %18

